/* XPM */
static char *path_marker[] = {
/* width height num_colors chars_per_pixel */
"16 16 4 1",
/* colors */
"  c None",
". c #FFD700",
"+ c #FFA500",
"# c #FF8C00",
/* pixels */
"                ",
"                ",
"      ....      ",
"     ......     ",
"    ..++++..    ",
"    .+####+.    ",
"   ..+####+..   ",
"   ..+####+..   ",
"   ..+####+..   ",
"   ..+####+..   ",
"    .+####+.    ",
"    ..++++..    ",
"     ......     ",
"      ....      ",
"                ",
"                "
};